main/static/img/legend/osmand/sport_leisure/sport_sportsCentreColor_day.svg

<svg width="300" height="35" viewBox="0 0 300 35" fill="none" xmlns="http://www.w3.org/2000/svg">
<rect width="300" height="35" fill="#888888"/>
<rect x="1" y="1" width="298" height="33" fill="#EBE7E4"/>
<path opacity="0.953" d="M149.999 7C155.514 7 160 11.4465 160 17C160 22.5172 155.514 27 149.999 27C144.486 27 140 22.5172 140 17C140 11.4465 144.486 7 149.999 7Z" fill="#60BE60"/>
<path opacity="0.95" fill-rule="evenodd" clip-rule="evenodd" d="M150 26C154.971 26 159 21.9706 159 17C159 12.0294 154.971 8 150 8C145.029 8 141 12.0294 141 17C141 21.9706 145.029 26 150 26ZM150 27C155.523 27 160 22.5228 160 17C160 11.4772 155.523 7 150 7C144.477 7 140 11.4772 140 17C140 22.5228 144.477 27 150 27Z" fill="#398C39"/>
<path d="M146.791 13.0931C146.566 12.9326 146.254 12.9847 146.093 13.2094C145.933 13.4341 145.985 13.7464 146.209 13.9069L148.803 15.7597C148.668 16.599 148.7 17.457 148.899 18.2837L148.019 21.3626C147.943 21.6282 148.097 21.9049 148.363 21.9808C148.628 22.0566 148.905 21.9029 148.981 21.6374L149.858 18.5655L152.146 20.8536C152.342 21.0488 152.658 21.0488 152.854 20.8536C153.049 20.6583 153.049 20.3417 152.854 20.1465L150.905 18.1982L150.949 18.1838C150.737 17.5496 150.673 16.8781 150.757 16.2194L153.697 14.9596C153.951 14.8508 154.068 14.5569 153.96 14.303C153.851 14.0492 153.557 13.9317 153.303 14.0404L150.672 15.168L149.17 14.7924L146.791 13.0931Z" fill="white"/>
<path d="M150 14.5C150.414 14.5 150.75 14.1642 150.75 13.75C150.75 13.3358 150.414 13 150 13C149.586 13 149.25 13.3358 149.25 13.75C149.25 14.1642 149.586 14.5 150 14.5Z" fill="white"/>
</svg>

<svg width="300" height="35" viewBox="0 0 300 35" fill="none" version="1.1" id="svg14" xmlns="http://www.w3.org/2000/svg"><rect width="300" height="35" fill="#888" id="rect2"/><rect x="1" y="1" width="298" height="33" fill="#EBE7E4" id="rect4" style="fill:#8de9a1;fill-opacity:1"/><path opacity=".95" d="M150 7a10.01 10.01 0 1 1-.02 19.98A10.01 10.01 0 0 1 150 7z" fill="#60BE60" id="path6"/><path opacity=".95" fill-rule="evenodd" clip-rule="evenodd" d="M150 26a9 9 0 1 0 0-18 9 9 0 0 0 0 18zm0 1a10 10 0 1 0 0-20 10 10 0 0 0 0 20z" fill="#398C39" id="path8"/><path d="M146.8 13.1a.5.5 0 0 0-.6.8l2.6 1.86c-.13.84-.1 1.7.1 2.52l-.88 3.08a.5.5 0 1 0 .96.28l.88-3.07 2.29 2.28a.5.5 0 0 0 .7-.7l-1.94-1.95.04-.02a4.43 4.43 0 0 1-.2-1.96l2.95-1.26a.5.5 0 0 0-.4-.92l-2.63 1.13-1.5-.38-2.38-1.7z" fill="#fff" id="path10"/><path d="M150 14.5a.75.75 0 1 0 0-1.5.75.75 0 0 0 0 1.5z" fill="#fff" id="path12"/></svg>
